storage/app/icons/tabler/outline/brand-google-analytics.svg

<!--
tags: [advertising, track, website, traffic, e-commerce, online, technology, brand, google, analytics]
category: Brand
version: "1.36"
unicode: "edcb"
-->
<svg
  xmlns="http://www.w3.org/2000/svg"
  width="24"
  height="24"
  viewBox="0 0 24 24"
  fill="none"
  stroke="currentColor"
  stroke-width="2"
  stroke-linecap="round"
  stroke-linejoin="round"
>
  <path d="M10 10.105a1.105 1.105 0 0 1 1.105 -1.105h1.79a1.105 1.105 0 0 1 1.105 1.105v9.79a1.105 1.105 0 0 1 -1.105 1.105h-1.79a1.105 1.105 0 0 1 -1.105 -1.105l0 -9.79" />
  <path d="M17 4.105a1.105 1.105 0 0 1 1.105 -1.105h1.79a1.105 1.105 0 0 1 1.105 1.105v15.79a1.105 1.105 0 0 1 -1.105 1.105h-1.79a1.105 1.105 0 0 1 -1.105 -1.105l0 -15.79" />
  <path d="M3 19a2 2 0 1 0 4 0a2 2 0 1 0 -4 0" />
</svg>

<svg xmlns="http://www.w3.org/2000/svg" width="24" height="24" fill="none" stroke="currentColor" stroke-linecap="round" stroke-linejoin="round" stroke-width="2" viewBox="0 0 24 24"><path d="M10 10.105A1.105 1.105 0 0 1 11.105 9h1.79A1.105 1.105 0 0 1 14 10.105v9.79A1.105 1.105 0 0 1 12.895 21h-1.79A1.105 1.105 0 0 1 10 19.895zm7-6A1.105 1.105 0 0 1 18.105 3h1.79A1.105 1.105 0 0 1 21 4.105v15.79A1.105 1.105 0 0 1 19.895 21h-1.79A1.105 1.105 0 0 1 17 19.895zM3 19a2 2 0 1 0 4 0 2 2 0 1 0-4 0"/></svg>
